X:94
T: Fish And Taters
M: 2/4
L: 1/8
R: polka 32
K:D
"D"FA AB/c/|"D"dc "A"BA|"D"FA AB/c/|"G"dF "A"E"D"D|
"D"FA AB/c/|"D"dc "A"BA|"D"Be ed/c/|"G"B"G"c "A    D"d2 :|
"D"fd "A"de/f/|"D"ed "A"BA|"D"fd "A"de/f/|"G"ed ("A"e"D"e)|
"D"fd de/f/|"D"ed "A"BA|"D"Be "A"ed/c/|"G"Bc "A      D"d2:|

